images/services/conservations-icon.svg

<svg width="35" height="47" viewBox="0 0 35 47" fill="none" xmlns="http://www.w3.org/2000/svg">
<path d="M30.698 0H4.30196C1.97569 0 0 1.8762 0 4.30196V43.3329C0.00684546 46.4118 3.76747 47.8565 5.90544 45.6952L15.9669 35.6366C16.7732 34.7955 18.2268 34.7955 19.0331 35.6366L29.0946 45.6952C31.2334 47.8573 34.9936 46.4105 35 43.3329V4.30196C35 1.8762 33.0243 0 30.698 0Z" fill="#407BFF"/>
</svg>

<?xml version="1.0" encoding="UTF-8"?>
<svg width="35" height="47" fill="none" version="1.1" viewBox="0 0 35 47" xmlns="http://www.w3.org/2000/svg">
 <path d="m30.698 0h-26.396c-2.3263 0-4.302 1.8762-4.302 4.302v39.031c0.0068455 3.0789 3.7675 4.5236 5.9054 2.3623l10.061-10.059c0.8063-0.8411 2.2599-0.8411 3.0662 0l10.062 10.059c2.1388 2.1621 5.899 0.7153 5.9054-2.3623v-39.031c0-2.4258-1.9757-4.302-4.302-4.302z" fill="#FF725E"/>
</svg>
